X:1
T:St. Medan, 77.76
T:St. Medan, 77.76
T:Harmonized by William Henry Monk (1823-1889)
T:Public Domain Courtesy of the Cyber Hymnal™
C:Harmonized by William Henry Monk (1823-1889)
Z:Public Domain
Z:Courtesy of the Cyber Hymnal™
%%score ( 1 2 ) ( 3 4 )
L:1/8
Q:1/4=110
M:4/2
K:C
V:1 treble 
V:2 treble 
V:3 bass 
V:4 bass 
V:1
 [Ec]2 [Ec]2 [GB]2 [FA]2 | [EG]3 [FA] [EG]4 | [CG]2 [CA]2 [CG]2 [CE]2 x2 | D3 [CE] [B,D]4 | %4
 [Ec]2 [Ec]2 [GB]2 [FA]2 | [EG]3 [FA] G4 | [CE]2 [CF]2 [B,G]2 [CE]2 | D4 C4 |] %8
V:2
 x8 | x8 | x10 | (C2 B,) x5 | x8 | x4 (E2 D2) | x8 | (C2 B,2) C4 |] %8
V:3
 [C,G,]2 [C,C]2 [E,C]2 [F,C]2 | [C,C]3 [C,C] [C,C]4 | [E,G,]2 F,2 G,2 z x3 | G,3 G, G,4 | %4
 [C,G,]2 [C,C]2 [E,C]2 [F,C]2 | [C,C]3 [C,C] ([C,C]2 [B,,G,]2) | [C,G,]2 [A,,A,]2 [G,,D,]2 (E,F,) | %7
 [G,,G,]4 [C,E,]4 |] %8
V:4
 x8 | x8 | x2 F,2 E,3 G,2 F, | G,3 G, G,4 | x8 | x8 | x6 G,,2 | x8 |] %8

